images/ban.svg

<svg fill="none" height="20" viewBox="0 0 20 20" width="20" xmlns="http://www.w3.org/2000/svg"><path d="m5 11h10v-2h-10zm5 9c-1.38333 0-2.68333-.2627-3.9-.788-1.21666-.5253-2.275-1.2377-3.175-2.137s-1.61233-1.9577-2.136999-3.175c-.524666-1.2173-.78733307-2.5173-.78799973-3.9-.00066667-1.38267.26199973-2.68267.78799973-3.9.525999-1.21733 1.238329-2.27567 2.136999-3.175s1.957-1.61167 3.175-2.137c1.218-.525333 2.518-.788 3.9-.788s2.682.262667 3.9.788c1.218.52533 2.2763 1.23767 3.175 2.137s1.6113 1.95767 2.138 3.175.789 2.51733.787 3.9c-.002 1.3827-.2647 2.6827-.788 3.9s-1.2357 2.2757-2.137 3.175-1.9597 1.612-3.175 2.138-2.5153.7883-3.9.787z" fill="#a86431"/></svg>

<svg width="20" height="20" viewBox="0 0 20 20" fill="none" xmlns="http://www.w3.org/2000/svg">
<path d="M5 11H15V9H5V11ZM10 20C8.61667 20 7.31667 19.7373 6.1 19.212C4.88334 18.6867 3.825 17.9743 2.925 17.075C2.025 16.1757 1.31267 15.1173 0.788001 13.9C0.263335 12.6827 0.000667933 11.3827 1.26582e-06 10C-0.000665401 8.61733 0.262001 7.31733 0.788001 6.1C1.314 4.88267 2.02633 3.82433 2.925 2.925C3.82367 2.02567 4.882 1.31333 6.1 0.788C7.318 0.262667 8.618 0 10 0C11.382 0 12.682 0.262667 13.9 0.788C15.118 1.31333 16.1763 2.02567 17.075 2.925C17.9737 3.82433 18.6863 4.88267 19.213 6.1C19.7397 7.31733 20.002 8.61733 20 10C19.998 11.3827 19.7353 12.6827 19.212 13.9C18.6887 15.1173 17.9763 16.1757 17.075 17.075C16.1737 17.9743 15.1153 18.687 13.9 19.213C12.6847 19.739 11.3847 20.0013 10 20Z" fill="#A86431"/>
</svg>
